X:1
T:Devaney's Goat
R:reel
M:4/4
L:1/8
K:D
|:DFAB AFAB|defe dBAF|DFAF BFAF|~E2ED EGFE|
|DFAB AFAB|defe dBAa|fedB AF~F2|AFEG FD~D2:|
|:fa~a2 afdf|~a2fd edBd|ABde fd~d2|edfd edBd|
|ABde fd~d2|egfd edBd|ABdB AF~F2|AFEG FD~D2:|